img/tiktok.svg

<svg width="20" height="21" viewBox="0 0 20 21" fill="none" xmlns="http://www.w3.org/2000/svg">
<g clip-path="url(#clip0_1_800)">
<path d="M10.4425 0.371849C11.5331 0.35498 12.6175 0.364977 13.7006 0.35498C13.7663 1.63013 14.225 2.92903 15.1588 3.83057C16.0906 4.75461 17.4088 5.17757 18.6913 5.32065V8.67503C17.4894 8.63567 16.2819 8.38576 15.1913 7.86846C14.7163 7.65354 14.2738 7.37676 13.8406 7.09374C13.835 9.52784 13.8506 11.9588 13.825 14.3829C13.76 15.5475 13.3756 16.7064 12.6981 17.6661C11.6081 19.2636 9.71625 20.3051 7.77313 20.3376C6.58125 20.4057 5.39063 20.0808 4.375 19.4823C2.69188 18.4902 1.5075 16.674 1.335 14.7247C1.315 14.308 1.30813 13.8919 1.325 13.4851C1.475 11.9001 2.25938 10.3838 3.47688 9.35228C4.85688 8.15085 6.79 7.57856 8.6 7.91719C8.61688 9.15111 8.5675 10.3838 8.5675 11.6177C7.74063 11.3503 6.77438 11.4253 6.05188 11.927C5.52438 12.2687 5.12375 12.7923 4.915 13.3845C4.7425 13.8069 4.79188 14.2761 4.80188 14.7247C5 16.0917 6.315 17.2406 7.71875 17.1163C8.64938 17.1063 9.54125 16.5665 10.0263 15.7762C10.1831 15.4994 10.3588 15.2164 10.3681 14.8909C10.45 13.4008 10.4175 11.917 10.4275 10.4269C10.4344 7.06875 10.4175 3.71999 10.4431 0.372474L10.4425 0.371849Z" fill="white"/>
</g>
<defs>
<clipPath id="clip0_1_800">
<rect width="20" height="19.9926" fill="white" transform="translate(0 0.35498)"/>
</clipPath>
</defs>
</svg>

<svg width="20" height="21" fill="none" xmlns="http://www.w3.org/2000/svg"><g clip-path="url(#clip0_1_800)"><path d="M10.443.372C11.533.355 12.617.365 13.7.355c.065 1.275.524 2.574 1.458 3.476.932.924 2.25 1.347 3.532 1.49v3.354c-1.202-.04-2.41-.29-3.5-.807-.475-.214-.917-.491-1.35-.774-.006 2.434.01 4.865-.016 7.289a6.34 6.34 0 01-1.127 3.283c-1.09 1.598-2.982 2.64-4.925 2.672-1.192.068-2.382-.257-3.398-.856-1.683-.992-2.867-2.808-3.04-4.757a13.93 13.93 0 01-.01-1.24 6.244 6.244 0 012.152-4.133C4.857 8.151 6.79 7.58 8.6 7.917c.017 1.234-.032 2.467-.032 3.7-.827-.267-1.794-.192-2.516.31a2.885 2.885 0 00-1.137 1.457c-.173.423-.123.892-.113 1.34.198 1.368 1.513 2.517 2.917 2.392.93-.01 1.822-.55 2.307-1.34.157-.277.333-.56.342-.885.082-1.49.05-2.974.06-4.464.006-3.358-.01-6.707.015-10.055z" fill="#fff"/></g><defs><clipPath id="clip0_1_800"><path fill="#fff" transform="translate(0 .355)" d="M0 0h20v19.993H0z"/></clipPath></defs></svg>
